X:1
T:Title
%%score { ( 1 4 ) | ( 2 3 ) }
L:1/8
M:6/8
K:Bb
V:1 treble nm="Grand Piano"
V:4 treble 
V:2 bass 
V:3 bass 
V:1
 z3 z2[Q:1/4=100] [DF] | [DF]2 [DF] [DF]2 [DF] | G2 G G2 [EG] | A2 A B2 c | %4
[M:5/8] [DB]2 [EG] [DF]2 |[M:1/8] [B,D] |[M:3/4] [DF]2 [DF] [DF]2 [DF] | G2 G G2 [=EG] | %8
 A2 A B2 c |[M:5/8] [DB]-[DB]- [DB]3 |[M:1/8] [DF] |[M:3/4] [DB][DB] [DB]c BG | [DF]4- [DF][DF] | %13
 GG G[=EG] [Ec][GB] | [GB]3 A2 F/F/ | [FB]3 c Bc | d4- dF | BB B[Gc] [GB][Gc] | [^Fd]6 | %19
 d3 [^Fc]2 [B,GB] | B4 z2 | e3 A2 c |[M:5/8] [DFB]-[DFB]- [DFB]3 |] %23
V:2
 z3 z2 [B,,B,] | [B,,B,]2 [B,,B,] [B,,B,]2 [B,,B,] | [E,B,E]2 [E,B,E] [E,B,E]2 [C,C] | %3
 [F,CE]2 [F,CE] [F,B,D]2 [F,A,E] |[M:5/8] [B,,B,]2 [B,,B,] [B,,B,]2 |[M:1/8] [B,,F,] | %6
[M:3/4] [B,,B,]2 [B,,B,] [B,,B,]2 [B,,B,] | [E,B,E]2 [E,B,E] [E,B,E]2 [C,C] | %8
 [F,CF]2 [F,CE] [F,B,D]2 [F,A,E] |[M:5/8] [B,,B,]-[B,,B,]- [B,,B,]3 |[M:1/8] [B,,B,] | %11
[M:3/4] [B,,F,][B,,F,] [B,,F,][E,G,E] [E,G,E][E,B,E] | [B,,B,]4- [B,,B,][B,,B,] | %13
 [E,B,E][E,B,E] [E,B,E][C,C] [C,G,][C,C] | [F,C]3 [F,CF]2 [F,A,]/[E,A,]/ | z2 z .[F,F]3[K:treble] | %16
 [B,F]4- [B,F][B,D] | [G,DG][G,DG] [G,DG][K:bass][E,C] [E,G,][E,G,] | A,4 z2 | %19
 [G,B,G]3 [D,A,]2 D, | E,3 C,3 | [F,A,F]3 [F,CF]2 [F,EF] |[M:5/8] B,,-B,,- B,,3 |] %23
V:3
 x6 | x6 | x6 | x6 |[M:5/8] x5 |[M:1/8] x |[M:3/4] x6 | x6 | x6 |[M:5/8] x5 |[M:1/8] x | %11
[M:3/4] x6 | x6 | x6 | x6 | [D,B,]3 A, G,[K:treble][F,A,F] | x6 | x3[K:bass] x3 | D,6 | x6 | x6 | %21
 x6 |[M:5/8] x5 |] %23
V:4
 x6 | x6 | x6 | x6 |[M:5/8] x5 |[M:1/8] x |[M:3/4] x6 | x6 | x6 |[M:5/8] x5 |[M:1/8] x | %11
[M:3/4] x6 | x6 | x6 | x6 | x6 | x6 | x6 | z2 z C3 | x6 | [B,G]3- [B,Ge]3 | x6 |[M:5/8] x5 |] %23

